X:8
T:Tregesal
C:Jackie Tolliday-Bailey
K:Emin
M:4/4
L:1/8
%%beginml
Story: The witches of Tregeseal were turned to stone,
but come to life and dance at full moon.
%%endml
%%text Verse
A | BEED E2 EA | BEED E2 E2 | D3 F A4 | BcBA GFEA |
BEED E2 EA | BEED E2E2 | D3 F A4 | BAGF E3 B ||
%%text Chorus
| Beef gf e2 | Beef g4 | Aeef gf d2 | Adde f4 |
Beef gf e2 | Beef g4 | B3 A G2 E2 | FGAB E4 |]

